icons/sun-off.svg

<svg width="24" height="24" viewBox="0 0 24 24" fill="none" xmlns="http://www.w3.org/2000/svg">
<g clip-path="url(#clip0)">
<path fill-rule="evenodd" clip-rule="evenodd" d="M0.292893 0.292893C0.683417 -0.0976311 1.31658 -0.0976311 1.70711 0.292893L23.7071 22.2929C24.0976 22.6834 24.0976 23.3166 23.7071 23.7071C23.3166 24.0976 22.6834 24.0976 22.2929 23.7071L15.4764 16.8907C14.4959 17.5887 13.2954 18 12 18C8.68629 18 6 15.3137 6 12C6 10.7046 6.41132 9.50411 7.10934 8.52355L0.292893 1.70711C-0.0976311 1.31658 -0.0976311 0.683417 0.292893 0.292893ZM8.55367 9.96789C8.20156 10.5635 8 11.2578 8 12C8 14.2091 9.79086 16 12 16C12.7422 16 13.4365 15.7984 14.0321 15.4463L8.55367 9.96789ZM12 1C12.5523 1 13 1.44772 13 2V3C13 3.55228 12.5523 4 12 4C11.4477 4 11 3.55228 11 3V2C11 1.44772 11.4477 1 12 1ZM19.7782 4.22183C20.1687 4.61235 20.1687 5.24552 19.7782 5.63604L19.0711 6.34315C18.6805 6.73367 18.0474 6.73367 17.6569 6.34314C17.2663 5.95262 17.2663 5.31946 17.6569 4.92893L18.364 4.22183C18.7545 3.8313 19.3877 3.8313 19.7782 4.22183ZM11 7C11 6.44772 11.4477 6 12 6C15.3137 6 18 8.68629 18 12C18 12.5523 17.5523 13 17 13C16.4477 13 16 12.5523 16 12C16 9.79086 14.2091 8 12 8C11.4477 8 11 7.55228 11 7ZM1 12C1 11.4477 1.44772 11 2 11H3C3.55228 11 4 11.4477 4 12C4 12.5523 3.55228 13 3 13H2C1.44772 13 1 12.5523 1 12ZM20 12C20 11.4477 20.4477 11 21 11H22C22.5523 11 23 11.4477 23 12C23 12.5523 22.5523 13 22 13H21C20.4477 13 20 12.5523 20 12ZM6.34314 17.6569C6.73367 18.0474 6.73367 18.6805 6.34315 19.0711L5.63604 19.7782C5.24552 20.1687 4.61235 20.1687 4.22183 19.7782C3.8313 19.3877 3.8313 18.7545 4.22183 18.364L4.92893 17.6569C5.31946 17.2663 5.95262 17.2663 6.34314 17.6569ZM12 20C12.5523 20 13 20.4477 13 21V22C13 22.5523 12.5523 23 12 23C11.4477 23 11 22.5523 11 22V21C11 20.4477 11.4477 20 12 20Z" fill="black"/>
</g>
<defs>
<clipPath id="clip0">
<rect width="24" height="24" fill="white"/>
</clipPath>
</defs>
</svg>

<svg
  width="24"
  height="24"
  viewBox="0 0 24 24"
  xmlns="http://www.w3.org/2000/svg"
>
  <g clip-path="url(#a)">
    <path
      fill-rule="evenodd"
      clip-rule="evenodd"
      d="M.293.293a1 1 0 0 1 1.414 0l22 22a1 1 0 0 1-1.414 1.414l-6.817-6.816A6 6 0 0 1 7.11 8.524L.293 1.707a1 1 0 0 1 0-1.414zm8.26 9.675a4 4 0 0 0 5.478 5.478L8.555 9.968zM12 1a1 1 0 0 1 1 1v1a1 1 0 1 1-2 0V2a1 1 0 0 1 1-1zm7.778 3.222a1 1 0 0 1 0 1.414l-.707.707a1 1 0 1 1-1.414-1.414l.707-.707a1 1 0 0 1 1.414 0zM11 7a1 1 0 0 1 1-1 6 6 0 0 1 6 6 1 1 0 1 1-2 0 4 4 0 0 0-4-4 1 1 0 0 1-1-1zM1 12a1 1 0 0 1 1-1h1a1 1 0 1 1 0 2H2a1 1 0 0 1-1-1zm19 0a1 1 0 0 1 1-1h1a1 1 0 1 1 0 2h-1a1 1 0 0 1-1-1zM6.343 17.657a1 1 0 0 1 0 1.414l-.707.707a1 1 0 0 1-1.414-1.414l.707-.707a1 1 0 0 1 1.414 0zM12 20a1 1 0 0 1 1 1v1a1 1 0 1 1-2 0v-1a1 1 0 0 1 1-1z"
    />
  </g>
  <defs>
    <clipPath id="a">
      <rect width="24" height="24" />
    </clipPath>
  </defs>
</svg>
